flaticon/game/ingot.svg

<svg xmlns="http://www.w3.org/2000/svg" width="32" height="32" viewBox="0 0 24 24">
    <path d="M 23.941406 7.859375 L 21.425781 3.625 C 21.425781 3.621094 21.421875 3.621094 21.421875 3.621094 C 21.394531 3.574219 21.359375 3.535156 21.3125 3.503906 C 21.308594 3.5 21.300781 3.496094 21.292969 3.488281 C 21.285156 3.484375 21.28125 3.476562 21.273438 3.472656 L 16.886719 1.078125 C 16.738281 0.996094 16.550781 1.015625 16.421875 1.125 L 2.386719 13.175781 C 2.386719 13.175781 2.382812 13.179688 2.378906 13.183594 C 2.375 13.1875 2.371094 13.195312 2.367188 13.199219 C 2.335938 13.230469 2.3125 13.265625 2.292969 13.304688 C 2.289062 13.308594 2.285156 13.3125 2.28125 13.316406 L 0.0351562 18.324219 C -0.0546875 18.523438 0.0273438 18.753906 0.21875 18.855469 L 7.972656 22.925781 C 7.980469 22.929688 7.988281 22.929688 7.992188 22.933594 C 8 22.9375 8.003906 22.941406 8.007812 22.941406 C 8.015625 22.945312 8.019531 22.945312 8.027344 22.945312 C 8.070312 22.960938 8.117188 22.972656 8.164062 22.972656 C 8.210938 22.972656 8.253906 22.960938 8.296875 22.949219 C 8.3125 22.941406 8.324219 22.9375 8.335938 22.929688 C 8.351562 22.921875 8.367188 22.917969 8.382812 22.910156 C 8.398438 22.898438 8.410156 22.886719 8.425781 22.875 C 8.433594 22.867188 8.4375 22.867188 8.445312 22.863281 L 23.871094 8.367188 C 24.011719 8.234375 24.039062 8.023438 23.941406 7.859375 Z M 16.742188 1.933594 L 20.371094 3.917969 L 7.828125 15.261719 L 3.421875 13.367188 Z M 0.941406 18.308594 L 2.863281 14.019531 L 7.507812 16.015625 L 7.726562 21.871094 Z M 8.539062 21.648438 L 8.324219 15.917969 L 15.101562 9.789062 L 20.980469 4.472656 L 23.070312 7.996094 Z M 8.539062 21.648438"/>
</svg>

<svg xmlns="http://www.w3.org/2000/svg" width="32" height="32" viewBox="0 0 24 24">
    <path d="M23.941 7.86l-2.515-4.235c0-.004-.004-.004-.004-.004a.348.348 0 0 0-.11-.117c-.003-.004-.011-.008-.019-.016-.008-.004-.012-.011-.02-.015l-4.386-2.395a.414.414 0 0 0-.465.047L2.387 13.175l-.008.009-.012.015a.396.396 0 0 0-.074.106l-.012.011-2.246 5.008a.41.41 0 0 0 .184.531l7.754 4.07c.007.005.015.005.02.009.007.003.01.007.015.007a.035.035 0 0 0 .02.004c.042.016.09.028.136.028.047 0 .09-.012.133-.024.015-.008.027-.012.039-.02.016-.007.031-.011.047-.019l.043-.035c.008-.008.011-.008.02-.012L23.87 8.367a.41.41 0 0 0 .07-.508zm-7.199-5.926l3.63 1.984L7.827 15.262l-4.406-1.895zM.942 18.309l1.921-4.29 4.645 1.997.219 5.855zm7.597 3.34l-.215-5.731 6.778-6.129 5.878-5.316 2.09 3.523zm0 0"/>
</svg>
